X: 1
T: Cabbages And Kings
T: 8x32J 3C (Romaine Butterfield/Harbour City)
T: NOTE: recommended tune is "Jackson's Jig"
P: Jackson's Morning Brush
M: 6/8
L: 1/8
C: arr. Terry Traub 5-29-2005
R: Jig
K: D
|: "D"D2 F E2 F | DFA AFA | "G"BAB "D"def | "Em"~g3 "A"ecA \
|  "D"D2 F E2 F | DFA AFA | "G"BAB "A"d2e | "D"fdd d2 :|
|: g \
|  "D"fed faf | "G"gbg "D"faf | "D"fed faf | "Em"~g3 "A"e2g \
|  "D"fed faf | "A"ede "G"fdB | "A"AFA "D"d2e | "A"fdd "D"d2 :|

